X:1
T:La blanchisseuse
A:Valle d'Aosta
B:AA.VV. Valdotains chantons, Torino 1932
C:trad.
O:Italia
Z:Gian Mario Navillod
Q:1/4=120
V:1
M:2/4
L:1/16
K:F
cd2c |F2-|F6A-A3d3 c |c6 c2 |
w:Il y~a vait _u _ne blan chis seu_ 
G2 c2c3c |B4 G4 |E4 c4 |F4 A c2 A |
w:se qui blan chis sait ses blanc ju pons ses blancs ju 
F4 c d2 c |F6 F2 |A3 c d3 c |c6c2 |
w:pons et tout le jour au bord de la ri viè_ 
G2 c2c3c |B4 G4 |E4 A4 |F4 Ac2A |
w:re de vant un jeune et beau gar çon, et beau gar 
F6 c2 |c6 c2 |d6 c2 |^B6 d2 |
w:çon l'a mour ce n'est qu'u ne fo 
c8 |A6 f2 |e6 d2 |c6 d2 |
w:li e; l'a mour ce n'est qu'un 
B6 c2 |A4 F F2 F |F2 A2 B2 c2 |F2 F2 F2 F2 |
w:vrai tour ment, qu'un vrai tour ment: pour e tre heureux, pour e tre 
F2 A2 c2 f2 |[d8z2] B2B2B2 |B2 d2d2d2 |c4 f4 |
w:heureux, dans cet te vie, dans cet vie, il faut s'ai mer fi 
e4 g4 |f8-|f6c2 |
w:dè le _ment Et 
M:6/8     %Meter
L:1/8     %
ccc d c c |
w:vi vent les fleurs_ prin 
(A3F2) c |c c c d c B |(A3F2) c |[c3z2] C [C2z2] c |
w:ta nières. Et vi vent les fleurs_ prin ta nières vio let tes 
[c3z2] C C2 [cz] |c d c B A F |F2 F F2 F |:[F2z2] [cF] [d2F2] [cF] |
w:vio lettes vio le ttes tu lipes et li las, li las, lilas; Dans cette 
[c6F2] F F2 F |[F2z2] [dF] [d2F2] [cF] |[c6F2] F F2 F |[F2z2] [dF] [d2F2] [cF] |
w:Dans cet te vie_ ou tout rie____ où cha 
c3 A3 |F3 e3 |[d6z2] B B2 B |[d3B3] FAc |
w:instant por te~au tom beau por te~au beau mar chons gai 
F2 F F2 F |F3 A c f |([d6B2]BB2B|[d3)B3] [dB] [dB] [dB] |
w:ment____ haut le flam beau____ mar chons gai 
[c3A3] [f3A3] |[e3c3] [g3B3] |[f6c6A6] |]
w:ment haut le flam beau! 
     %End of file

